X:1
T:Title
%%score ( 1 2 ) { ( 3 5 ) | 4 }
L:1/8
Q:1/4=100
M:4/4
K:D
V:1 treble nm="Grand Piano"
V:2 treble 
V:3 bass nm="Grand Piano"
V:5 bass 
V:4 bass 
V:1
 z2[Q:1/4=108] G2 [GA]2 [FA]2 | [GB]6 [Dd]2 | [EG]2 [DG]2 [EA]2 [FA]2 | [GB]6 A2 | %4
w: Gott~ ist~ ge|treu.~ Sein~|Herz,~ Sein~ Va ter|herz~ ver|
 [GB]2 [Fd]2 [Ed]2 [Ec]2 |[M:3/8] [Fd]3 |[M:4/4] z2 G2 [GA]2 [FA]2 | [GB]6 [Dd]2 | %8
w: l�sst~ die~ Sei nen~|nie.~|Gott~ ist~ ge|treu.~ Im~|
 [EG]2 [DG]2 [EA]2 [FA]2 | [GB]6 A2 | [GB]2 [Fd]2 [Ed]2 [Ec]2 |[M:3/8] [Fd]3 | %12
w: Herz,~ Sein~ Va ter|herz~ ver|l�sst~ die~ Sei Er~|nie.~|
[M:3/4] [FA]2 [EA]2 [DA]2 |[M:4/4] [DB]2 [DA]2 [E=c]2 [DB]2 | [DA]4 [DA]4 | z2 [FA]2 [GA]2 [DA]2 | %16
w: ||||
 B2 z2 =c2 z2 | A4 z4 | z2 d=c [GB]2 [FA]2 |[M:9/8] [DG]3 z3 z3 |] %20
w: ||||
V:2
 x8 | x8 | x8 | x8 | x8 |[M:3/8] x3 |[M:4/4] x8 | x8 | x8 | x8 | x8 |[M:3/8] x3 |[M:3/4] x6 | %13
[M:4/4] x8 | x8 | x8 | DE [FA]2 EF [GB]2 | G2 FE [FA]4 | z2 D2 z4 |[M:9/8] x9 |] %20
V:3
 z2 B,2 A,2 D2 | D6 A,2 | B,2 B,2 A,2[K:treble] D2 | D6 D2 | z2 D2[K:bass] z4 |[M:3/8] A,3 | %6
[M:4/4] z2 B,2 A,2 D2 | D6 A,2 | B,2 B,2 A,2[K:treble] D2 | D6 D2 | z2 D2[K:bass] z4 |[M:3/8] A,3 | %12
[M:3/4] A,2 A,G, F,2 |[M:4/4] z4 z2 G,2 | G,2 F,E, F,4 | z2[K:treble] D2 E2 D2 | z4 z2 D2 | %17
 D4 A,4 | z2 A,2 D2 D=C |[M:9/8] B,3 z3 z3 |] %20
V:4
 z2 G,2 D,2 D,2 | G,6 F,2 | E,2 B,,2 =C,2 D,2 | G,6 F,2 | G,2 .B,2 G,2 z2 |[M:3/8] D,3 | %6
[M:4/4] z2 G,2 D,2 D,2 | G,6 F,2 | E,2 B,,2 =C,2 D,2 | G,6 F,2 | G,2 .B,2 G,2 z2 |[M:3/8] D,3 | %12
[M:3/4] D,2 C,2 D,2 |[M:4/4] G,,2 D,2 A,,2 .A,,2 | D,4 D,4 | z2 D,2 C,2 D,2 | G,2 D,2 A,2 .B,2 | %17
 D,4 D,4 | z2 F,2 G,2 D,2 |[M:9/8] G,,3 z3 z3 |] %20
V:5
 x8 | x8 | x6[K:treble] x2 | x8 | D2 z[K:bass] A, B,2 A,2 |[M:3/8] x3 |[M:4/4] x8 | x8 | %8
 x6[K:treble] x2 | x8 | D2 z[K:bass] A, B,2 A,2 |[M:3/8] x3 |[M:3/4] x6 | %13
[M:4/4] G,2 F,2 E,F, z B,, | x8 | x2[K:treble] x6 | B,C D2 =C2 z G, | x8 | x8 |[M:9/8] x9 |] %20

